svg/u1f983.svg

<svg viewBox="0 0 128 128" xmlns="http://www.w3.org/2000/svg">
  <path d="M45.41,99.05c0,0,0.56,7.18,0,8.02c-0.56,0.84-4.79,1.27-8.02,4.36c-2.67,2.55-2.11,5.49,0.99,5.21 c3.1-0.28,6.62-3.1,10.42-3.8c3.8-0.7,9.57-0.28,9.57-2.67s-5.07-2.96-5.07-2.96v-6.9l6.48,0.56l-0.28,11.83 c0,0-7.04,2.53-9.15,4.22c-2.11,1.69-3.94,4.36-2.39,5.91c1.55,1.55,5.07-0.56,6.62-0.99c1.55-0.42,6.34-2.67,9.71-3.1 c3.38-0.42,9.57,0.42,10.28-1.27c0.7-1.69-1.27-3.52-3.94-4.36s-2.67-0.84-2.67-0.84V98.34L45.41,99.05z" fill="#858585"/>
  <path d="M47.38,43.86c0,0-3.74-1.82-3.94-8.17c-0.14-4.5,2.96-7.46,2.96-7.46s-1.27-4.08,1.41-7.88 s5.07-3.66,5.07-3.66s0-4.79,4.08-7.32s7.32-0.14,7.32-0.14s1.69-4.08,6.19-4.36c4.5-0.28,5.91,2.39,5.91,2.39s2.96-3.94,7.32-2.67 c4.36,1.27,5.07,4.79,5.07,4.79s3.8-3.52,8.45-0.42c4.65,3.1,3.52,7.18,3.52,7.18s4.64-2.26,9.01,2.11 c3.24,3.24,1.27,7.46,1.27,7.46s4.21,0.24,5.91,4.93c1.69,4.65-1.83,8.02-1.83,8.02s4.19,0.46,5.35,5.63 c1.27,5.63-3.1,8.87-3.1,8.87s2.53,2.25,1.69,8.02c-0.74,5.03-5.91,7.04-5.91,7.04s1.97,3.47-0.56,7.98 c-2.53,4.5-7.88,4.27-7.88,4.27s-0.34,3.16-2.67,5.49c-2.96,2.96-7.04,1.69-7.04,1.69L46.4,53.15L47.38,43.86z" fill="#FFEAC9"/>
  <path d="M81.45,67.79l14.37,12.03L99.61,83c0,0,4.08-0.14,6.9-4.22c2-2.9,0.56-6.9,0.56-6.9 s5.07-0.7,6.62-6.48c1.55-5.77-1.27-8.45-1.27-8.45s4.15-1.26,4.15-7.04c0-5.28-4.72-6.34-4.72-6.34s4.43-1.62,2.96-6.48 c-1.31-4.31-5.77-4.08-5.77-4.08s2.6-4.5-0.7-8.31c-2.81-3.23-6.76-1.41-6.76-1.41s0.7-4.08-2.25-6.48s-6.62-0.56-6.62-0.56 s0.14-4.22-3.38-5.21c-3.52-0.99-5.35,0.84-5.35,0.84s-2.11-3.24-5.63-2.96c-3.52,0.28-4.93,2.82-4.93,2.82s-2.11-2.53-5.91-1.69 c-4.04,0.9-4.22,4.5-4.22,4.5s-3.26-1.59-5.91,0c-3.52,2.11-2.96,6.19-2.96,6.19s-3.94,0.56-5.49,3.38 c-2.04,3.7-0.14,7.32-0.14,7.32l0.56,9.71L81.45,67.79z" fill="#4D4D4D"/>
  <path d="M97.92,79.48c0,0,3.94-0.42,5.07-3.8c1.13-3.38-0.42-5.63-0.42-5.63s5.07-1.55,6.19-6.19 s-1.83-8.17-1.83-8.17s4.93-5.07,2.96-10s-6.34-6.05-6.34-6.05s2.56-5.01,0.99-8.17c-2.25-4.5-8.17-4.22-8.17-4.22 s1.52-4.72-3.85-7.62C87.86,17.11,83.84,20,83.84,20s-2.25-4.72-7.6-4.72c-5.35,0-7.18,4.93-7.18,4.93s-4.5-2.96-8.73-0.42 s-4.08,7.46-4.08,7.46s-4.93-0.28-8.73,4.65c-2.92,3.79-1.13,10.7-1.13,10.7L32.6,53.44c0,0-0.19-1.88-1.27-3.8 c-1.08-1.92,2.58-13.19,2.58-13.19s-16.66,7.41-18.77,11.22c-2.11,3.8-3.6,10.4-3.24,16.89c0.49,8.8,5.35,21.82,14.78,28.72 c10.46,7.65,19.93,11.48,34.77,11.26c19.15-0.28,27.87-5.35,30.27-6.34S97.92,79.48,97.92,79.48z" fill="#845B52"/>
  <radialGradient id="SVGID_1_" cx="25.8632" cy="20.3452" gradientTransform="matrix(0.8012 -0.5985 0.5116 0.6849 -5.2666 21.8881)" gradientUnits="userSpaceOnUse" r="14.7776">
    <stop offset="0.2058" stop-color="#5EA4CE"/>
    <stop offset="0.5056" stop-color="#988AA4"/>
    <stop offset="1" stop-color="#FE5D5A"/>
  </radialGradient>
  <path d="M29.92,40.48c0,0,5.07-4.5,6.62-6.62c1.55-2.11,5.13-7.47,3.94-16.47 C39.5,9.93,32.33,5.81,26.78,7.07c-3.1,0.7-6.99,7.79-7.56,10.04s2.96,11.4,2.96,11.4L29.92,40.48z" fill="url(#SVGID_1_)"/>
  <ellipse cx="29.36" cy="19.23" fill="#000306" rx="3.66" ry="3.8"/>
  <path d="M17.11,15.85c-1.13,1.55-2.53,3.37-3.94,4.79c-2.11,2.11-4.36,4.5-4.22,5.35 c0.22,1.31,2.65,0.4,4.22-0.42c2.96-1.55,4.65-2.25,5.63-2.25c0.99,0,1.41,0.7,2.25,0.14c0.84-0.56,2.11-2.96,1.97-3.8 s-3.61-2.11-4.32-2.53C18.01,16.69,17.11,15.85,17.11,15.85z" fill="#898484"/>
  <path d="M27.53,6.79c0.87,0.21-3.1,1.95-4.08,6.16c-0.87,3.73-1.83,7.32-4.93,5.76 c-4.13-2.08-1.06-7.86,0.14-9.19C20.35,7.65,23.59,5.86,27.53,6.79z" fill="#A22911"/>
  <path d="M23.07,20.13c-0.14-1.53-1.9-0.84-2.18,0.69c-0.28,1.53-0.49,2.14-1.06,3.21 c-0.56,1.07-6.34,6.04-7.32,7.42s-3.05,4.65-1.27,7.65c1.55,2.6,6.9,1.84,6.9,1.84l6.48-9.18c0,0-0.99-3.52-1.13-5.05 C23.36,25.18,23.21,21.66,23.07,20.13z" fill="#A22911"/>
  <path d="M28.44,30.88c2.57,3.13,2.8,6.65,2.35,9.46c-0.46,2.81-1.88,9.04-7.92,14.12 c-3.13,2.64-9.63,4.31-13.38,0.4c-4.43-4.63,3.02-10.94,4.17-12.48s5.84-5.35,7.36-9.06c0.95-2.31,2.34-7.15,2.34-7.15 S26.38,28.37,28.44,30.88z" fill="#FF2219"/>
  <path d="M94.54,75.4c0,0,3.31-0.8,4.32-3.1c1.31-3-0.19-5.07-0.19-5.07s5.35-0.75,5.82-5.91 c0.37-4.07-2.72-6.1-2.72-6.1s3.75-2.63,3.1-6.76c-0.86-5.42-6.01-5.63-6.01-5.63s4.22-3.28,0.94-8.35 c-2.1-3.23-7.13-2.35-7.13-2.35s1.88-4.6-2.53-7.04c-4.22-2.34-7.88,1.41-7.88,1.41s0.1-4.72-5.63-5.26 c-4.97-0.47-6.48,4.6-6.48,4.6s-3.28-3-7.79-0.84c-4.13,1.97-3.75,6.76-3.75,6.76s-4.37-0.9-7.23,1.69c-3,2.72-1.92,8.26-1.92,8.26 S29.22,52.78,28.09,54c-1.13,1.22-7.98,10.98-3.57,22.43S41.21,93.61,52.5,87.22c7.79-4.41,12.95-14.73,15.2-17.93 c2.25-3.19,5.26-4.04,5.26-4.04L94.54,75.4z" fill="#B79277"/>
  <path d="M64.32,67.04c0,0,6.29-0.84,11.64,1.69c5.35,2.53,11.26,7.6,13.98,13.61 c2.72,6.01,2.44,15.58,2.44,15.58s8.54,0.47,8.82-8.17c0.2-6-2.72-8.73-2.72-8.73s2.44-3.1-1.6-7.98c-2.41-2.91-6.43-4.34-6.43-4.34 s-3.01-3.74-9.29-5C72.72,62.02,64.32,67.04,64.32,67.04z" fill="#FAEACB"/>
  <path d="M52.21,41.23c0,0,0.43-4.72,4.69-6.19c5.44-1.88,8.26,1.22,8.26,1.22s2.53-5.17,8.82-4.79 c6.97,0.42,8.02,7.32,8.02,7.32s6.19-1.67,9.85,3.87c3.66,5.54-0.14,11.24-0.14,11.24s5.17,1.55,5.07,7.74 c-0.09,5.87-3.52,8.4-3.52,8.4s-1.55-0.92-2.67-0.99c-1.08-0.61-7.23-5.4-12.95-5.49c-5.73-0.09-10.61,2.06-13.33,3.47 c-2.72,1.41-13.14,9.01-14.73,9.95s-12.2,7.6-19.9-2.16s-2.23-22.02,2.25-26.09C37.01,44.14,43.96,41.33,52.21,41.23z" fill="#4D4D4D"/>
  <path d="M43.67,57.28c0.34,1.28,3.21,4.39,11.03,7.13c3.05,1.07,9.64,2.6,9.64,2.6s3.87-1.69,6.26-2.51 c0.79-0.27,5.49-1.08,5.49-1.08c0.84,0.29-10.39-1.15-17.67-3.03C52.17,58.78,43.16,55.31,43.67,57.28z" fill="#000306"/>
  <path d="M91.49,87.36c0,0,1.74-0.5,4.81-0.35c2.46,0.12,4.93,0.49,5,1.9s-2.25,0.84-5.28,0.84 c-2.98,0-4.11,0.38-4.11,0.38L91.49,87.36z" fill="#B49075"/>
  <path d="M89.01,80.65c0,0,2.72-0.47,4.55-0.61c1.83-0.14,5.58-0.02,5.58-1.36c0-1.34-4.6-1.55-6.41-1.41 c-2.55,0.2-5.37,0.8-5.37,0.8L89.01,80.65z" fill="#B49075"/>
  <path d="M83.47,73.8c0,0,1.85-2,4.6-2.25c2.58-0.23,6.38,0.12,5.68-1.22c-0.7-1.34-4.34-1.57-5.96-1.45 c-5.4,0.38-6.8,2.96-6.8,2.96L83.47,73.8z" fill="#B49075"/>
</svg>

<svg viewBox="0 0 128 128" xmlns="http://www.w3.org/2000/svg">
  <defs>
    <radialGradient id="SVGID_1_" cx="8.546029" cy="37.170683" gradientTransform="matrix(0.8012 -0.5985 0.5116 0.6849 0 0)" gradientUnits="userSpaceOnUse" r="14.7776">
      <stop offset="0.2058" stop-color="#5EA4CE"/>
      <stop offset="0.5056" stop-color="#988AA4"/>
      <stop offset="1" stop-color="#FE5D5A"/>
    </radialGradient>
  </defs>
  <path d="M45.41,99.05 C45.41,99.05 45.97,106.23 45.41,107.07 C44.85,107.91 40.62,108.34 37.39,111.43 C34.72,113.98 35.28,116.92 38.38,116.64 C41.48,116.36 45,113.54 48.8,112.84 C52.6,112.14 58.37,112.56 58.37,110.17 C58.37,107.78 53.3,107.21 53.3,107.21 L53.3,100.31 L59.78,100.87 L59.5,112.7 C59.5,112.7 52.46,115.23 50.35,116.92 C48.24,118.61 46.41,121.28 47.96,122.83 C49.51,124.38 53.03,122.27 54.58,121.84 C56.13,121.42 60.92,119.17 64.29,118.74 C67.67,118.32 73.86,119.16 74.57,117.47 C75.27,115.78 73.3,113.95 70.63,113.11 C67.96,112.27 67.96,112.27 67.96,112.27 L67.96,98.34 L45.41,99.05 Z" fill="#858585"/>
  <path d="M47.38,43.86 C47.38,43.86 43.64,42.04 43.44,35.69 C43.3,31.19 46.4,28.23 46.4,28.23 C46.4,28.23 45.13,24.15 47.81,20.35 C50.49,16.55 52.88,16.69 52.88,16.69 C52.88,16.69 52.88,11.9 56.96,9.37 C61.04,6.84 64.28,9.23 64.28,9.23 C64.28,9.23 65.97,5.15 70.47,4.87 C74.97,4.59 76.38,7.26 76.38,7.26 C76.38,7.26 79.34,3.32 83.7,4.59 C88.06,5.86 88.77,9.38 88.77,9.38 C88.77,9.38 92.57,5.86 97.22,8.96 C101.87,12.06 100.74,16.14 100.74,16.14 C100.74,16.14 105.38,13.88 109.75,18.25 C112.99,21.49 111.02,25.71 111.02,25.71 C111.02,25.71 115.23,25.95 116.93,30.64 C118.62,35.29 115.1,38.66 115.1,38.66 C115.1,38.66 119.29,39.12 120.45,44.29 C121.72,49.92 117.35,53.16 117.35,53.16 C117.35,53.16 119.88,55.41 119.04,61.18 C118.3,66.21 113.13,68.22 113.13,68.22 C113.13,68.22 115.1,71.69 112.57,76.2 C110.04,80.7 104.69,80.47 104.69,80.47 C104.69,80.47 104.35,83.63 102.02,85.96 C99.06,88.92 94.98,87.65 94.98,87.65 L46.4,53.15 L47.38,43.86 Z" fill="#FFEAC9"/>
  <path d="M81.45,67.79 L95.82,79.82 L99.61,83 C99.61,83 103.69,82.86 106.51,78.78 C108.51,75.88 107.07,71.88 107.07,71.88 C107.07,71.88 112.14,71.18 113.69,65.4 C115.24,59.63 112.42,56.95 112.42,56.95 C112.42,56.95 116.57,55.69 116.57,49.91 C116.57,44.63 111.85,43.57 111.85,43.57 C111.85,43.57 116.28,41.95 114.81,37.09 C113.5,32.78 109.04,33.01 109.04,33.01 C109.04,33.01 111.64,28.51 108.34,24.7 C105.53,21.47 101.58,23.29 101.58,23.29 C101.58,23.29 102.28,19.21 99.33,16.81 C96.38,14.41 92.71,16.25 92.71,16.25 C92.71,16.25 92.85,12.03 89.33,11.04 C85.81,10.05 83.98,11.88 83.98,11.88 C83.98,11.88 81.87,8.64 78.35,8.92 C74.83,9.2 73.42,11.74 73.42,11.74 C73.42,11.74 71.31,9.21 67.51,10.05 C63.47,10.95 63.29,14.55 63.29,14.55 C63.29,14.55 60.03,12.96 57.38,14.55 C53.86,16.66 54.42,20.74 54.42,20.74 C54.42,20.74 50.48,21.3 48.93,24.12 C46.89,27.82 48.79,31.44 48.79,31.44 L49.35,41.15 L81.45,67.79 Z" fill="#4D4D4D"/>
  <path d="M97.92,79.48 C97.92,79.48 101.86,79.06 102.99,75.68 C104.12,72.3 102.57,70.05 102.57,70.05 C102.57,70.05 107.64,68.5 108.76,63.86 C109.88,59.22 106.93,55.69 106.93,55.69 C106.93,55.69 111.86,50.62 109.89,45.69 C107.92,40.76 103.55,39.64 103.55,39.64 C103.55,39.64 106.11,34.63 104.54,31.47 C102.29,26.97 96.37,27.25 96.37,27.25 C96.37,27.25 97.89,22.53 92.52,19.63 C87.86,17.11 83.84,20 83.84,20 C83.84,20 81.59,15.28 76.24,15.28 C70.89,15.28 69.06,20.21 69.06,20.21 C69.06,20.21 64.56,17.25 60.33,19.79 C56.1,22.33 56.25,27.25 56.25,27.25 C56.25,27.25 51.32,26.97 47.52,31.9 C44.6,35.69 46.39,42.6 46.39,42.6 L32.6,53.44 C32.6,53.44 32.41,51.56 31.33,49.64 C30.25,47.72 33.91,36.45 33.91,36.45 C33.91,36.45 17.25,43.86 15.14,47.67 C13.03,51.47 11.54,58.07 11.9,64.56 C12.39,73.36 17.25,86.38 26.68,93.28 C37.14,100.93 46.61,104.76 61.45,104.54 C80.6,104.26 89.32,99.19 91.72,98.2 C94.12,97.21 97.92,79.48 97.92,79.48 Z" fill="#845B52"/>
  <path d="M29.92,40.48 C29.92,40.48 34.99,35.98 36.54,33.86 C38.09,31.75 41.67,26.39 40.48,17.39 C39.5,9.93 32.33,5.81 26.78,7.07 C23.68,7.77 19.79,14.86 19.22,17.11 C18.65,19.36 22.18,28.51 22.18,28.51 L29.92,40.48 Z" fill="url(#SVGID_1_)"/>
  <path d="M33.02,19.23 A3.66 3.8 0 1 1 25.7,19.23 A3.66 3.8 0 1 1 33.02,19.23 Z" fill="#000306"/>
  <path d="M17.11,15.85 C15.98,17.4 14.58,19.22 13.17,20.64 C11.06,22.75 8.81,25.14 8.95,25.99 C9.17,27.3 11.6,26.39 13.17,25.57 C16.13,24.02 17.82,23.32 18.8,23.32 C19.79,23.32 20.21,24.02 21.05,23.46 C21.89,22.9 23.16,20.5 23.02,19.66 C22.88,18.82 19.41,17.55 18.7,17.13 C18.01,16.69 17.11,15.85 17.11,15.85 Z" fill="#898484"/>
  <path d="M27.53,6.79 C28.4,7 24.43,8.74 23.45,12.95 C22.58,16.68 21.62,20.27 18.52,18.71 C14.39,16.63 17.46,10.85 18.66,9.52 C20.35,7.65 23.59,5.86 27.53,6.79 Z" fill="#A22911"/>
  <path d="M23.07,20.13 C22.93,18.6 21.17,19.29 20.89,20.82 C20.61,22.35 20.4,22.96 19.83,24.03 C19.27,25.1 13.49,30.07 12.51,31.45 C11.53,32.83 9.46,36.1 11.24,39.1 C12.79,41.7 18.14,40.94 18.14,40.94 L24.62,31.76 C24.62,31.76 23.63,28.24 23.49,26.71 C23.36,25.18 23.21,21.66 23.07,20.13 Z" fill="#A22911"/>
  <path d="M28.44,30.88 C31.01,34.01 31.24,37.53 30.79,40.34 C30.33,43.15 28.91,49.38 22.87,54.46 C19.74,57.1 13.24,58.77 9.49,54.86 C5.06,50.23 12.51,43.92 13.66,42.38 C14.81,40.84 19.5,37.03 21.02,33.32 C21.97,31.01 23.36,26.17 23.36,26.17 C23.36,26.17 26.38,28.37 28.44,30.88 Z" fill="#FF2219"/>
  <path d="M94.54,75.4 C94.54,75.4 97.85,74.6 98.86,72.3 C100.17,69.3 98.67,67.23 98.67,67.23 C98.67,67.23 104.02,66.48 104.49,61.32 C104.86,57.25 101.77,55.22 101.77,55.22 C101.77,55.22 105.52,52.59 104.87,48.46 C104.01,43.04 98.86,42.83 98.86,42.83 C98.86,42.83 103.08,39.55 99.8,34.48 C97.7,31.25 92.67,32.13 92.67,32.13 C92.67,32.13 94.55,27.53 90.14,25.09 C85.92,22.75 82.26,26.5 82.26,26.5 C82.26,26.5 82.36,21.78 76.63,21.24 C71.66,20.77 70.15,25.84 70.15,25.84 C70.15,25.84 66.87,22.84 62.36,25 C58.23,26.97 58.61,31.76 58.61,31.76 C58.61,31.76 54.24,30.86 51.38,33.45 C48.38,36.17 49.46,41.71 49.46,41.71 C49.46,41.71 29.22,52.78 28.09,54 C26.96,55.22 20.11,64.98 24.52,76.43 C28.93,87.88 41.21,93.61 52.5,87.22 C60.29,82.81 65.45,72.49 67.7,69.29 C69.95,66.1 72.96,65.25 72.96,65.25 L94.54,75.4 Z" fill="#B79277"/>
  <path d="M64.32,67.04 C64.32,67.04 70.61,66.2 75.96,68.73 C81.31,71.26 87.22,76.33 89.94,82.34 C92.66,88.35 92.38,97.92 92.38,97.92 C92.38,97.92 100.92,98.39 101.2,89.75 C101.4,83.75 98.48,81.02 98.48,81.02 C98.48,81.02 100.92,77.92 96.88,73.04 C94.47,70.13 90.45,68.7 90.45,68.7 C90.45,68.7 87.44,64.96 81.16,63.7 C72.72,62.02 64.32,67.04 64.32,67.04 Z" fill="#FAEACB"/>
  <path d="M52.21,41.23 C52.21,41.23 52.64,36.51 56.9,35.04 C62.34,33.16 65.16,36.26 65.16,36.26 C65.16,36.26 67.69,31.09 73.98,31.47 C80.95,31.89 82,38.79 82,38.79 C82,38.79 88.19,37.12 91.85,42.66 C95.51,48.2 91.71,53.9 91.71,53.9 C91.71,53.9 96.88,55.45 96.78,61.64 C96.69,67.51 93.26,70.04 93.26,70.04 C93.26,70.04 91.71,69.12 90.59,69.05 C89.51,68.44 83.36,63.65 77.64,63.56 C71.91,63.47 67.03,65.62 64.31,67.03 C61.59,68.44 51.17,76.04 49.58,76.98 C47.99,77.92 37.38,84.58 29.68,74.82 C21.98,65.06 27.45,52.8 31.93,48.73 C37.01,44.14 43.96,41.33 52.21,41.23 Z" fill="#4D4D4D"/>
  <path d="M43.67,57.28 C44.01,58.56 46.88,61.67 54.7,64.41 C57.75,65.48 64.34,67.01 64.34,67.01 C64.34,67.01 68.21,65.32 70.6,64.5 C71.39,64.23 76.09,63.42 76.09,63.42 C76.93,63.71 65.7,62.27 58.42,60.39 C52.17,58.78 43.16,55.31 43.67,57.28 Z" fill="#000306"/>
  <path d="M91.49,87.36 C91.49,87.36 93.23,86.86 96.3,87.01 C98.76,87.13 101.23,87.5 101.3,88.91 C101.37,90.32 99.05,89.75 96.02,89.75 C93.04,89.75 91.91,90.13 91.91,90.13 L91.49,87.36 Z" fill="#B49075"/>
  <path d="M89.01,80.65 C89.01,80.65 91.73,80.18 93.56,80.04 C95.39,79.9 99.14,80.02 99.14,78.68 C99.14,77.34 94.54,77.13 92.73,77.27 C90.18,77.47 87.36,78.07 87.36,78.07 L89.01,80.65 Z" fill="#B49075"/>
  <path d="M83.47,73.8 C83.47,73.8 85.32,71.8 88.07,71.55 C90.65,71.32 94.45,71.67 93.75,70.33 C93.05,68.99 89.41,68.76 87.79,68.88 C82.39,69.26 80.99,71.84 80.99,71.84 L83.47,73.8 Z" fill="#B49075"/>
</svg>
